src/assets/filled/ColorSwatch.svg

<svg width="24" height="24" viewBox="0 0 24 24"  xmlns="http://www.w3.org/2000/svg">
<path d="M21.9999 16.5V19.5C21.9999 20.88 20.8799 22 19.4999 22H12.3599C11.4699 22 11.0299 20.93 11.6499 20.3L17.5199 14.3C17.7099 14.11 17.9699 14 18.2299 14H19.4999C20.8799 14 21.9999 15.12 21.9999 16.5Z" />
<path d="M18.37 11.29L15.66 14L13.2 16.45C12.57 17.08 11.49 16.64 11.49 15.75C11.49 12.54 11.49 7.26002 11.49 7.26002C11.49 6.99002 11.6 6.74002 11.78 6.55002L12.7 5.63002C13.68 4.65002 15.26 4.65002 16.24 5.63002L18.36 7.75002C19.35 8.73002 19.35 10.31 18.37 11.29Z" />
<path d="M7.5 2H4.5C3 2 2 3 2 4.5V18C2 18.27 2.03 18.54 2.08 18.8C2.11 18.93 2.14 19.06 2.18 19.19C2.23 19.34 2.28 19.49 2.34 19.63C2.35 19.64 2.35 19.65 2.35 19.65C2.36 19.65 2.36 19.65 2.35 19.66C2.49 19.94 2.65 20.21 2.84 20.46C2.95 20.59 3.06 20.71 3.17 20.83C3.28 20.95 3.4 21.05 3.53 21.15L3.54 21.16C3.79 21.35 4.06 21.51 4.34 21.65C4.35 21.64 4.35 21.64 4.35 21.65C4.5 21.72 4.65 21.77 4.81 21.82C4.94 21.86 5.07 21.89 5.2 21.92C5.46 21.97 5.73 22 6 22C6.41 22 6.83 21.94 7.22 21.81C7.33 21.77 7.44 21.73 7.55 21.68C7.9 21.54 8.24 21.34 8.54 21.08C8.63 21.01 8.73 20.92 8.82 20.83L8.86 20.79C9.56 20.07 10 19.08 10 18V4.5C10 3 9 2 7.5 2ZM6 19.5C5.17 19.5 4.5 18.83 4.5 18C4.5 17.17 5.17 16.5 6 16.5C6.83 16.5 7.5 17.17 7.5 18C7.5 18.83 6.83 19.5 6 19.5Z" />
</svg>

<?xml version="1.0" encoding="UTF-8"?>
<svg width="24" height="24" viewBox="0 0 24 24" xmlns="http://www.w3.org/2000/svg">
 <path d="m22 16.5v3c0 1.38-1.12 2.5-2.5 2.5h-7.14c-0.89 0-1.33-1.07-0.71-1.7l5.87-6c0.19-0.19 0.45-0.3 0.71-0.3h1.27c1.38 0 2.5 1.12 2.5 2.5z"/>
 <path d="m18.37 11.29-2.71 2.71-2.46 2.45c-0.63 0.63-1.71 0.19-1.71-0.7v-8.49c0-0.27 0.11-0.52 0.29-0.71l0.92-0.92c0.98-0.98 2.56-0.98 3.54 0l2.12 2.12c0.99 0.98 0.99 2.56 0.01 3.54z"/>
 <path d="m7.5 2h-3c-1.5 0-2.5 1-2.5 2.5v13.5c0 0.27 0.03 0.54 0.08 0.8 0.03 0.13 0.06 0.26 0.1 0.39 0.05 0.15 0.1 0.3 0.16 0.44 0.01 0.01 0.01 0.02 0.01 0.02 0.01 0 0.01 0 0 0.01 0.14 0.28 0.3 0.55 0.49 0.8 0.11 0.13 0.22 0.25 0.33 0.37s0.23 0.22 0.36 0.32l0.01 0.01c0.25 0.19 0.52 0.35 0.8 0.49 0.01-0.01 0.01-0.01 0.01 0 0.15 0.07 0.3 0.12 0.46 0.17 0.13 0.04 0.26 0.07 0.39 0.1 0.26 0.05 0.53 0.08 0.8 0.08 0.41 0 0.83-0.06 1.22-0.19 0.11-0.04 0.22-0.08 0.33-0.13 0.35-0.14 0.69-0.34 0.99-0.6 0.09-0.07 0.19-0.16 0.28-0.25l0.04-0.04c0.7-0.72 1.14-1.71 1.14-2.79v-13.5c0-1.5-1-2.5-2.5-2.5zm-1.5 17.5c-0.83 0-1.5-0.67-1.5-1.5s0.67-1.5 1.5-1.5 1.5 0.67 1.5 1.5-0.67 1.5-1.5 1.5z"/>
</svg>
